Newaita-dark/actions/16/draw-square-inverted-corners.svg

<?xml version="1.0" encoding="UTF-8"?>
<svg xmlns="http://www.w3.org/2000/svg" xmlns:xlink="http://www.w3.org/1999/xlink" width="16pt" height="16pt" viewBox="0 0 16 16" version="1.1">
<g id="surface1">
<path style=" stroke:none;fill-rule:nonzero;fill:rgb(83.137256%,88.235295%,34.117648%);fill-opacity:1;" d="M 0.660156 0.785156 L 5.238281 0.785156 C 5.273438 1 5.292969 1.222656 5.292969 1.449219 C 5.292969 3.648438 3.523438 5.417969 1.324219 5.417969 C 1.097656 5.417969 0.875 5.398438 0.660156 5.363281 L 0.660156 10.765625 C 0.875 10.726562 1.097656 10.710938 1.324219 10.710938 C 3.523438 10.710938 5.292969 12.480469 5.292969 14.679688 C 5.292969 14.902344 5.273438 15.125 5.238281 15.339844 L 10.640625 15.339844 C 10.601562 15.125 10.585938 14.902344 10.585938 14.679688 C 10.585938 12.480469 12.355469 10.710938 14.554688 10.710938 C 14.777344 10.710938 15 10.726562 15.214844 10.765625 L 15.214844 5.363281 C 15 5.398438 14.777344 5.417969 14.554688 5.417969 C 12.355469 5.417969 10.585938 3.648438 10.585938 1.449219 C 10.585938 1.222656 10.601562 1 10.640625 0.785156 L 15.214844 0.785156 Z M 6.285156 1.777344 L 9.59375 1.777344 C 9.890625 4.179688 11.820312 6.113281 14.222656 6.410156 L 14.222656 9.71875 C 11.820312 10.015625 9.890625 11.945312 9.59375 14.347656 L 6.285156 14.347656 C 5.988281 11.945312 4.054688 10.015625 1.652344 9.71875 L 1.652344 6.410156 C 4.054688 6.113281 5.988281 4.179688 6.285156 1.777344 Z M 6.285156 1.777344 "/>
</g>
</svg>

<svg xmlns="http://www.w3.org/2000/svg" width="16pt" height="16pt" viewBox="0 0 16 16"><path d="M.66.785h4.578c.035.215.055.438.055.664a3.96 3.96 0 0 1-3.969 3.969c-.226 0-.449-.02-.664-.055v5.403c.215-.04.438-.055.664-.055a3.96 3.96 0 0 1 3.914 4.629h5.403a3.703 3.703 0 0 1-.055-.66 3.96 3.96 0 0 1 3.969-3.97c.222 0 .445.017.66.056V5.363a3.96 3.96 0 0 1-4.629-3.914c0-.226.016-.449.055-.664h4.574zm5.625.992h3.309C9.89 4.18 11.82 6.113 14.223 6.41V9.72a5.356 5.356 0 0 0-4.63 4.629H6.286c-.297-2.403-2.23-4.332-4.633-4.63V6.41a5.364 5.364 0 0 0 4.633-4.633zm0 0" fill="#d4e157"/></svg>
